src/shared/assets/image/calendar/4-april.svg

<svg width="24" height="24" viewBox="0 0 24 24" fill="none" xmlns="http://www.w3.org/2000/svg">
<g clip-path="url(#clip0_1_390)">
<path d="M19.5 2H18V0.5C18 0.224 17.776 0 17.5 0C17.224 0 17 0.224 17 0.5V2H7V0.5C7 0.224 6.776 0 6.5 0C6.224 0 6 0.224 6 0.5V2H4.5C2.019 2 0 4.019 0 6.5V19.5C0 21.981 2.019 24 4.5 24H5.5C5.776 24 6 23.776 6 23.5C6 23.224 5.776 23 5.5 23H4.5C2.57 23 1 21.43 1 19.5V9H23V13.5C23 13.776 23.224 14 23.5 14C23.776 14 24 13.776 24 13.5V6.5C24 4.019 21.981 2 19.5 2ZM1 8V6.5C1 4.57 2.57 3 4.5 3H19.5C21.43 3 23 4.57 23 6.5V8H1Z" fill="#474A55"/>
<path d="M4.72 22.07C4.61333 22.07 4.52667 22.0467 4.46 22C4.4 21.9467 4.36333 21.88 4.35 21.8C4.34333 21.7133 4.36333 21.6167 4.41 21.51L7.16 15.25C7.22 15.1167 7.29 15.0233 7.37 14.97C7.45667 14.91 7.55 14.88 7.65 14.88C7.75 14.88 7.84 14.91 7.92 14.97C8.00667 15.0233 8.07667 15.1167 8.13 15.25L10.89 21.51C10.9433 21.6167 10.9633 21.7133 10.95 21.8C10.9433 21.8867 10.91 21.9533 10.85 22C10.79 22.0467 10.7067 22.07 10.6 22.07C10.48 22.07 10.3833 22.04 10.31 21.98C10.2367 21.9133 10.1767 21.82 10.13 21.7L9.39 19.99L9.79 20.2H5.49L5.9 19.99L5.17 21.7C5.11 21.8267 5.04667 21.92 4.98 21.98C4.91333 22.04 4.82667 22.07 4.72 22.07ZM7.64 15.91L6.03 19.7L5.79 19.51H9.49L9.27 19.7L7.66 15.91H7.64ZM12.4952 22.07C12.3618 22.07 12.2585 22.0333 12.1852 21.96C12.1185 21.8867 12.0852 21.7833 12.0852 21.65V17.6C12.0852 17.4467 12.1252 17.3333 12.2052 17.26C12.2852 17.18 12.3985 17.14 12.5452 17.14H15.8652C16.0118 17.14 16.1252 17.18 16.2052 17.26C16.2852 17.3333 16.3252 17.4467 16.3252 17.6V21.65C16.3252 21.7833 16.2885 21.8867 16.2152 21.96C16.1418 22.0333 16.0418 22.07 15.9152 22.07C15.7885 22.07 15.6885 22.0333 15.6152 21.96C15.5485 21.8867 15.5152 21.7833 15.5152 21.65V17.79H12.8952V21.65C12.8952 21.7833 12.8618 21.8867 12.7952 21.96C12.7285 22.0333 12.6285 22.07 12.4952 22.07ZM18.335 23.87C18.2017 23.87 18.1017 23.8333 18.035 23.76C17.9683 23.6933 17.935 23.5933 17.935 23.46V17.48C17.935 17.3467 17.9683 17.2467 18.035 17.18C18.1017 17.1067 18.1983 17.07 18.325 17.07C18.4583 17.07 18.5583 17.1067 18.625 17.18C18.6983 17.2467 18.735 17.3467 18.735 17.48V18.43L18.625 18.29C18.7317 17.91 18.9417 17.61 19.255 17.39C19.575 17.1633 19.955 17.05 20.395 17.05C20.8283 17.05 21.205 17.1533 21.525 17.36C21.8517 17.56 22.1017 17.85 22.275 18.23C22.455 18.6033 22.545 19.05 22.545 19.57C22.545 20.0833 22.455 20.53 22.275 20.91C22.1017 21.2833 21.855 21.5733 21.535 21.78C21.215 21.9867 20.835 22.09 20.395 22.09C19.955 22.09 19.5783 21.98 19.265 21.76C18.9517 21.5333 18.7383 21.2333 18.625 20.86H18.745V23.46C18.745 23.5933 18.7083 23.6933 18.635 23.76C18.5617 23.8333 18.4617 23.87 18.335 23.87ZM20.225 21.44C20.5317 21.44 20.795 21.3667 21.015 21.22C21.2417 21.0733 21.415 20.86 21.535 20.58C21.6617 20.3 21.725 19.9633 21.725 19.57C21.725 18.9633 21.5883 18.5 21.315 18.18C21.0483 17.86 20.685 17.7 20.225 17.7C19.925 17.7 19.6617 17.7733 19.435 17.92C19.2083 18.06 19.0317 18.27 18.905 18.55C18.785 18.8233 18.725 19.1633 18.725 19.57C18.725 20.17 18.8617 20.6333 19.135 20.96C19.4083 21.28 19.7717 21.44 20.225 21.44Z" fill="#474A55"/>
</g>
<defs>
<clipPath id="clip0_1_390">
<rect width="24" height="24" fill="white"/>
</clipPath>
</defs>
</svg>

<svg width="24" height="24" fill="none" xmlns="http://www.w3.org/2000/svg"><g clip-path="url(#a)" fill="#474A55"><path d="M19.5 2H18V.5a.5.5 0 0 0-1 0V2H7V.5a.5.5 0 0 0-1 0V2H4.5A4.5 4.5 0 0 0 0 6.5v13A4.5 4.5 0 0 0 4.5 24h1a.5.5 0 0 0 0-1h-1A3.5 3.5 0 0 1 1 19.5V9h22v4.5a.5.5 0 0 0 1 0v-7A4.5 4.5 0 0 0 19.5 2ZM1 8V6.5A3.5 3.5 0 0 1 4.5 3h15A3.5 3.5 0 0 1 23 6.5V8H1Z"/><path d="M4.72 22.07c-.1 0-.2-.02-.26-.07a.33.33 0 0 1-.11-.2c0-.09.01-.18.06-.29l2.75-6.26a.64.64 0 0 1 .21-.28.48.48 0 0 1 .28-.09c.1 0 .19.03.27.09.09.05.16.15.21.28l2.76 6.26c.05.1.07.2.06.29 0 .09-.04.15-.1.2a.4.4 0 0 1-.25.07.44.44 0 0 1-.29-.09.73.73 0 0 1-.18-.28l-.74-1.71.4.21h-4.3l.41-.21-.73 1.71a.88.88 0 0 1-.19.28.37.37 0 0 1-.26.09Zm2.92-6.16L6.03 19.7l-.24-.19h3.7l-.22.19-1.61-3.79h-.02Zm4.86 6.16a.42.42 0 0 1-.31-.11.44.44 0 0 1-.1-.31V17.6c0-.15.04-.27.12-.34.08-.08.19-.12.34-.12h3.32c.14 0 .26.04.34.12.08.07.12.19.12.34v4.05c0 .13-.04.24-.11.31a.4.4 0 0 1-.3.11.4.4 0 0 1-.3-.11.44.44 0 0 1-.1-.31v-3.86H12.9v3.86c0 .13-.04.24-.1.31-.07.07-.17.11-.3.11Zm5.84 1.8c-.14 0-.24-.04-.3-.11-.07-.07-.1-.17-.1-.3v-5.98c0-.13.03-.23.1-.3.06-.07.16-.11.29-.11.13 0 .23.04.3.11.07.07.1.17.1.3v.95l-.1-.14c.1-.38.31-.68.63-.9.31-.23.7-.34 1.13-.34.44 0 .81.1 1.13.31.33.2.58.49.75.87.18.37.28.82.28 1.34 0 .51-.1.96-.28 1.34-.17.37-.41.66-.73.87-.32.2-.7.31-1.14.31-.45 0-.82-.11-1.13-.33a1.69 1.69 0 0 1-.64-.9h.12v2.6c0 .13-.04.23-.11.3a.4.4 0 0 1-.3.11Zm1.89-2.43c.3 0 .57-.07.79-.22.22-.15.4-.36.52-.64s.19-.62.19-1.01c0-.6-.14-1.07-.41-1.39a1.34 1.34 0 0 0-1.1-.48 1.39 1.39 0 0 0-1.32.85c-.11.27-.17.61-.17 1.02 0 .6.13 1.06.4 1.39.28.32.64.48 1.1.48Z"/></g><defs><clipPath id="a"><path fill="#fff" d="M0 0h24v24H0z"/></clipPath></defs></svg>
